assets/svg/1f4b7.svg

<svg xmlns="http://www.w3.org/2000/svg" viewBox="0 0 64 64" enable-background="new 0 0 64 64"><path fill="#9450e0" d="m0 46.5h64v9h-64z"/><path fill="#c28fef" d="m0 8.499h64v38h-64z"/><path fill="#94989b" d="m24 46.5h16v9h-16z"/><path fill="#9450e0" d="m4 12.499h56v30h-56z"/><path fill="#c28fef" d="m7 15.499h50v24h-50z"/><circle fill="#9450e0" cx="45" cy="27.499" r="8"/><path fill="#d0d0d0" d="m24 8.499h16v38h-16z"/><path fill="#fff" d="m16 30.354c0-.321-.032-.645-.12-.998h2.898v-2.347h-4.066c-.054-.074-.094-.143-.149-.221-.133-.184-.271-.365-.41-.547-.578-.752-.933-1.244-.933-1.858 0-1.495 1.246-2.713 2.78-2.713 1.532 0 2.778 1.218 2.778 2.713h2.222c0-2.693-2.244-4.884-5-4.884-2.758 0-5 2.19-5 4.884 0 1.079.473 1.923.976 2.626h-.976v2.347h2.538c.235.518.239.8.239.998 0 1.793-1.785 2.945-2.777 2.977v2.17h10v-2.172h-6.03c.62-.808 1.028-1.813 1.028-2.975"/></svg>

<svg xmlns="http://www.w3.org/2000/svg" width="64" height="64" viewBox="0 0 64 64"><path fill="#9450E0" d="M0 46.5h64v9H0z"/><path fill="#C28FEF" d="M0 8.499h64V46.5H0z"/><path fill="#94989B" d="M24 46.5h16v9H24z"/><path fill="#9450E0" d="M4 12.499h56V42.5H4z"/><path fill="#C28FEF" d="M7 15.499h50V39.5H7z"/><circle fill="#9450E0" cx="45" cy="27.499" r="8"/><path fill="#D0D0D0" d="M24 8.499h16V46.5H24z"/><path fill="#FFF" d="M16 30.354c0-.321-.032-.645-.12-.998h2.898v-2.347h-4.066c-.054-.074-.094-.143-.149-.221a25.96 25.96 0 0 0-.41-.547c-.578-.752-.933-1.244-.933-1.858 0-1.495 1.246-2.713 2.78-2.713 1.532 0 2.778 1.218 2.778 2.713H21c0-2.693-2.244-4.884-5-4.884-2.758 0-5 2.19-5 4.884 0 1.079.473 1.923.976 2.626H11v2.347h2.538c.235.518.239.8.239.998 0 1.793-1.785 2.945-2.777 2.977v2.17h10v-2.172h-6.028A4.834 4.834 0 0 0 16 30.354z"/></svg>
